packages/components/src/telekom/icons/home/wifi-manual-login/default.svg

<?xml version="1.0" encoding="UTF-8"?>
<svg width="24px" height="24px" viewBox="0 0 24 24" version="1.1" xmlns="http://www.w3.org/2000/svg" xmlns:xlink="http://www.w3.org/1999/xlink">
    <title>/svg/icon/home/wifi-manual-login/default</title>
    <g id="icon/home/wifi-manual-login/default" stroke="none" stroke-width="1" fill="none" fill-rule="evenodd">
        <path d="M12.006,18 C13.111,18 14.006,18.896 14.006,20 C14.006,21.104 13.111,22 12.006,22 C10.902,22 10.006,21.104 10.006,20 C10.006,18.896 10.902,18 12.006,18 Z M10.926,13.601 C11.076,14.283 11.32,14.93 11.648,15.525 C10.16125,15.6428 8.874855,16.47538 8.14634037,17.6883637 L8.036,17.883 L6.6,16.394 C7.574,14.936 9.126,13.902 10.926,13.601 Z M17.944,6.375 C21.085,6.375 23.631,8.922 23.631,12.062 C23.631,15.203 21.085,17.75 17.944,17.75 C14.803,17.75 12.256,15.203 12.256,12.062 C12.256,8.922 14.803,6.375 17.944,6.375 Z M17.944,7.875 C15.635,7.875 13.756,9.754 13.756,12.062 C13.756,14.371 15.635,16.25 17.944,16.25 C20.253,16.25 22.131,14.371 22.131,12.062 C22.131,9.754 20.253,7.875 17.944,7.875 Z M18.456,13.444 L18.456,14.597 L17.302,14.597 L17.302,13.444 L18.456,13.444 Z M11.443,9.016 C11.141,9.658 10.932,10.351 10.832,11.078 C8.49713043,11.384087 6.44680529,12.587724 5.03021106,14.3292228 L4.841,14.57 L3.433,13.11 C5.34,10.741 8.206,9.18 11.443,9.016 Z M17.96,9.328 C18.88,9.328 19.605,9.938 19.605,10.842 C19.605,11.394 19.3399204,11.7223322 19.0592479,11.9891525 L18.7500696,12.2719261 C18.5892677,12.4241071 18.4589206,12.5760132 18.4199383,12.7672335 L18.408,12.899 L17.349,12.899 L17.349,12.739 C17.349,12.21 17.638,11.92325 17.927,11.68125 L18.1392344,11.5050547 C18.3424375,11.3310781 18.505,11.1545 18.505,10.892 C18.505,10.541 18.286,10.346 17.96,10.346 C17.6594,10.346 17.45843,10.51691 17.397185,10.853627 L17.382,10.972 L16.283,10.972 C16.307,10.085 16.901,9.328 17.96,9.328 Z M12.006,4.5 C13.475,4.5 14.895,4.705 16.242,5.088 C15.149,5.354 14.154,5.865 13.32,6.567 C12.888,6.526 12.45,6.5 12.006,6.5 C7.99145455,6.5 4.38876584,8.25462259 1.91553457,11.0362371 L1.687,11.3 L0.293,9.854 C3.135,6.577 7.327,4.5 12.006,4.5 Z" id="Icon" fill="#000000"></path>
    </g>
</svg>

<svg width="24" height="24" xmlns="http://www.w3.org/2000/svg"><path d="M12.006 18a2 2 0 11-.001 4.001A2 2 0 0112.006 18zm-1.08-4.4c.15.684.394 1.33.722 1.926a4.494 4.494 0 00-3.501 2.162l-.11.195-1.438-1.49a6.494 6.494 0 014.327-2.792zm.517-4.584a7.157 7.157 0 00-.612 2.063 8.985 8.985 0 00-5.801 3.25l-.19.242-1.407-1.46a10.98 10.98 0 018.01-4.095zm.563-4.516c1.47 0 2.89.205 4.235.587a7.158 7.158 0 00-2.92 1.48 13.47 13.47 0 00-11.405 4.468l-.23.264L.293 9.854A15.464 15.464 0 0112.006 4.5zm6.45 8.944v1.153h-1.154v-1.153h1.154zm-.496-4.116c.92 0 1.645.61 1.645 1.514 0 .552-.265.88-.546 1.147l-.31.282c-.16.152-.29.304-.33.495l-.011.134h-1.06v-.16c0-.477.235-.757.493-.985l.299-.25c.203-.175.366-.351.366-.613 0-.351-.22-.546-.546-.546-.334 0-.545.21-.578.626h-1.1c.025-.887.62-1.644 1.678-1.644zm-.016-2.953a5.688 5.688 0 10.218.004l-.218-.004z" fill="#000" fill-rule="evenodd"/></svg>
